packages/dnb-ui-lib/assets/icons/log_in_medium.svg

<svg width="24" height="24" viewBox="0 0 24 24" fill="none" xmlns="http://www.w3.org/2000/svg">
<path d="M6.93335 5.39951V3.93285C6.93335 3.54387 7.08788 3.17082 7.36293 2.89577C7.63798 2.62072 8.01103 2.46619 8.40002 2.46619H9.80002M9.80002 20.0661H8.40002C8.01103 20.0661 7.63798 19.9116 7.36293 19.6365C7.08788 19.3615 6.93335 18.9884 6.93335 18.5994V17.1328M16.0333 12.3661C16.106 12.3661 16.1771 12.3445 16.2375 12.3041C16.2978 12.2636 16.3448 12.2061 16.3725 12.1389C16.4001 12.0716 16.4071 11.9977 16.3927 11.9265C16.3782 11.8553 16.3429 11.7899 16.2912 11.7388C16.2395 11.6877 16.1738 11.6531 16.1025 11.6394C16.0311 11.6257 15.9572 11.6335 15.8903 11.6618C15.8234 11.6902 15.7664 11.7378 15.7266 11.7986C15.6867 11.8594 15.6659 11.9307 15.6667 12.0034C15.6666 12.0516 15.6759 12.0993 15.6943 12.1438C15.7127 12.1884 15.7397 12.2289 15.7738 12.2629C15.8079 12.297 15.8483 12.324 15.8929 12.3424C15.9374 12.3608 15.9852 12.3702 16.0333 12.37M6.13333 14.2004L9.06667 11.2671M9.06667 11.2671H1M9.06667 11.2671L6.13333 8.33381M13.5703 1.00736L22.3703 2.26478C22.5451 2.28952 22.705 2.37655 22.8207 2.50986C22.9364 2.64316 23.0001 2.81377 23 2.99028V20.0944C23.0002 20.2624 22.9427 20.4253 22.8371 20.5559C22.7316 20.6865 22.5844 20.777 22.4202 20.8121L13.6202 22.9838C13.5132 23.0067 13.4025 23.0053 13.2961 22.9799C13.1897 22.9544 13.0904 22.9055 13.0054 22.8367C12.9203 22.7679 12.8518 22.681 12.8047 22.5822C12.7576 22.4835 12.7333 22.3755 12.7334 22.2661V1.73287C12.7334 1.62785 12.756 1.52407 12.7997 1.42855C12.8433 1.33302 12.907 1.24799 12.9864 1.1792C13.0657 1.11042 13.1589 1.05947 13.2597 1.02983C13.3604 1.00018 13.4664 0.992518 13.5703 1.00736Z" stroke="black" stroke-width="1.5" stroke-linecap="round" stroke-linejoin="round"/>
</svg>

<svg width="24" height="24" viewBox="0 0 24 24" fill="none" xmlns="http://www.w3.org/2000/svg"><path d="M6.933 5.4V3.933A1.467 1.467 0 018.4 2.466h1.4m0 17.6H8.4A1.466 1.466 0 016.933 18.6v-1.466m9.1-4.767a.367.367 0 10-.339-.222.364.364 0 00.34.226m-9.9 1.83l2.933-2.933m0 0H1m8.067 0L6.133 8.334m7.437-7.327l8.8 1.258a.732.732 0 01.63.725v17.104a.733.733 0 01-.58.718l-8.8 2.172a.734.734 0 01-.887-.718V1.733a.731.731 0 01.837-.726z" stroke="#000" stroke-width="1.5" stroke-linecap="round" stroke-linejoin="round"/></svg>
